X: 3
T:Atholl Highlanders, The
M:6/8
L:1/8
R:Double Jig
K:A
e3 ecA|ecA Bcd|e3 ecA|Bcd cBA|!
e3 ecA|ecA Bcd|eae fed|1cdB Acd:|2cdB A2A|!
|:Ace Ace|Adf Adf|Ace Ace|Bcd cBA|!
Ace Ace|Adf Adf|eae fed|cdB A2A:|!
|:a2e edc|a2e edc|a2e edc|Bcd efg|!
a2e edc|a2e edc|eae fed|1cdB A2A:|2cdB A2B|!
|:c2c cAc|d2d dBd|c2c cAc|B2B B=GB|!
c2c cAc|d2d dBd|eae fed|1cdB A2B:|2cdB Acd|]!
